public/avatar/hat/20.svg

<svg xmlns:xlink="http://www.w3.org/1999/xlink" height="92.9" width="100.7" xmlns="http://www.w3.org/2000/svg"><use height="32.95" transform="translate(14.65 41.7)" width="46.8" xlink:href="#a"/><defs><path d="M2.3-15.7q.95.75 1.55 1.7.55.95.45 2l2.65-.05 1.1.05q2.45.15 4.9 1.1l3.85 1.75q1.4.75 1.8 2.2Q18-5.4 16.4-5.9l2.25 1.85q2.2 2.1 3.7 5.05 1.4 2.7.9 5.65l-.5.85-1.2.25Q20.8 7.6 19 5.05l1.35 2.35 1.05 2.55q.4 1.2.25 1.8l-.4 1.3q-.3.65-.9.85l-1.4-.25q-.85-.45-1.35-1.85-.5-1.4-2.1-3.65.45 1.55.35 2.75l-.35 2.25q-.45 2.3-1.5 1.8-1.15-.55-1.2-1.95l-.5-3.3L11.15 5l.25 3.1q.15 2.1-.05 3.65-.25 1.55-1.1 2.65-.85 1.1-1.4.9l-1-.5-.15-.45-.35-4.25-.3-3.7q-.25-2-.85-3.85T4.55-.85l-1.9-2.7-.6-.75-.5.3L.1-2.9Q-2.15-1-3.2 1.65l-1.05 2.3-1.5 1.45q-.55.4-1.05.2l-.1-.05q-1.2-2.1-.05-4.35 1.2-2.3 3.1-4.05Q-5.5-1.8-6.7-.4q-1.85 2.15-3.1 4.65-2.1 4.2-2.45 9l-.25 1.3-.5 1.15-1.1.45q-.85.15-1.55-.55-.75-.7-.65-1.9l-.3 1.6-.45.75q-.5.5-1.3.45-.7-.35-1.45-.75l-.4-1.45q-.25-1.1-.1-2.25-2.05 1.1-2.5-.15l-.55-2.2Q-23.8 5-21.15 1q1.35-2 3.05-3.55l-.4.35-.4.15-.75.15h-.3l-.25-.2-.55-.5-.05-.25.25-.35 1.4-1.85q1.2-1.65 4.3-3.65 4.75-3.15 10.45-3.65l5.25.45q.25-1.3-1-2.25-1.3-.95-1.15-1.75.35-.35 1.15-.55 1.5-.05 2.45.75" fill-rule="evenodd" transform="translate(23.4 16.45)" id="b"/><use height="32.95" width="46.8" xlink:href="#b" id="a"/></defs></svg>

<?xml version="1.0" encoding="UTF-8" standalone="no"?>
<svg xmlns:xlink="http://www.w3.org/1999/xlink" height="92.9px" width="100.7px" xmlns="http://www.w3.org/2000/svg">
  <g transform="matrix(1.0, 0.0, 0.0, 1.0, 38.65, 49.75)">
    <use height="32.95" transform="matrix(1.0, 0.0, 0.0, 1.0, -24.0, -8.05)" width="46.8" xlink:href="#sprite0"/>
  </g>
  <defs>
    <g id="sprite0" transform="matrix(1.0, 0.0, 0.0, 1.0, 23.4, 16.45)">
      <use height="32.95" transform="matrix(1.0, 0.0, 0.0, 1.0, -23.4, -16.45)" width="46.8" xlink:href="#shape0"/>
    </g>
    <g id="shape0" transform="matrix(1.0, 0.0, 0.0, 1.0, 23.4, 16.45)">
      <path d="M2.3 -15.7 Q3.25 -14.95 3.85 -14.0 4.4 -13.05 4.3 -12.0 L6.95 -12.05 8.05 -12.0 Q10.5 -11.85 12.95 -10.9 L16.8 -9.15 Q18.2 -8.4 18.6 -6.95 18.0 -5.4 16.4 -5.9 L18.65 -4.05 Q20.85 -1.95 22.35 1.0 23.75 3.7 23.25 6.65 L22.75 7.5 21.55 7.75 Q20.8 7.6 19.0 5.05 L20.35 7.4 21.4 9.95 Q21.8 11.15 21.65 11.75 L21.25 13.05 Q20.95 13.7 20.35 13.9 L18.95 13.65 Q18.1 13.2 17.6 11.8 17.1 10.4 15.5 8.15 15.95 9.7 15.85 10.9 L15.5 13.15 Q15.05 15.45 14.0 14.95 12.85 14.4 12.8 13.0 L12.3 9.7 11.15 5.0 11.4 8.1 Q11.55 10.2 11.35 11.75 11.1 13.3 10.25 14.4 9.4 15.5 8.85 15.3 L7.85 14.8 7.7 14.35 7.35 10.1 7.05 6.4 Q6.8 4.4 6.2 2.55 5.6 0.7 4.55 -0.85 L2.65 -3.55 2.05 -4.3 1.55 -4.0 0.1 -2.9 Q-2.15 -1.0 -3.2 1.65 L-4.25 3.95 -5.75 5.4 Q-6.3 5.8 -6.8 5.6 L-6.9 5.55 Q-8.1 3.45 -6.95 1.2 -5.75 -1.1 -3.85 -2.85 -5.5 -1.8 -6.7 -0.4 -8.55 1.75 -9.8 4.25 -11.9 8.45 -12.25 13.25 L-12.5 14.55 -13.0 15.7 -14.1 16.15 Q-14.95 16.3 -15.65 15.6 -16.4 14.9 -16.3 13.7 L-16.6 15.3 -17.05 16.05 Q-17.55 16.55 -18.35 16.5 -19.05 16.15 -19.8 15.75 L-20.2 14.3 Q-20.45 13.2 -20.3 12.05 -22.35 13.15 -22.8 11.9 L-23.35 9.7 Q-23.8 5.0 -21.15 1.0 -19.8 -1.0 -18.1 -2.55 L-18.5 -2.2 -18.9 -2.05 -19.65 -1.9 -19.95 -1.9 -20.2 -2.1 -20.75 -2.6 -20.8 -2.85 -20.55 -3.2 -19.15 -5.05 Q-17.95 -6.7 -14.85 -8.7 -10.1 -11.85 -4.4 -12.35 L0.85 -11.9 Q1.1 -13.2 -0.15 -14.15 -1.45 -15.1 -1.3 -15.9 -0.95 -16.25 -0.15 -16.45 1.35 -16.5 2.3 -15.7" fill="#000000" fill-rule="evenodd" stroke="none"/>
    </g>
  </defs>
</svg>
